X: 12038
T: Erin Martell's
R: reel
M: 4/4
K: Gmajor
e2|BE E/E/E EFGA|(Be)BA GFEG|FD D/D/D DEFG|Ad^cd fdAF|
BE E/E/E EFGA|(Bc)BA GFEG|1 FDFA dfed|fdAF E2:|2 FDFA dgfe|dBAF E2||
g|eB B/B/B egfg|Bbab geeg|fd d/d/d Ad^cd|["Before 1st ending" fa^ga fddf|
eB B/B/B egfg|Bbab geeg|1 fd d/d/d AGFA|fdAF E3:|2 fd d/d/d Agfe|dBAE F3||
["Before 2nd ending" fa^ga bafd|

